file/pampers.svg

<svg clip-rule="evenodd" fill-rule="evenodd" stroke-linejoin="round" stroke-miterlimit="1.41421" viewBox="0 0 560 400" xmlns="http://www.w3.org/2000/svg" xmlns:xlink="http://www.w3.org/1999/xlink"><g fill-rule="nonzero"><path d="m0 2.833s-10.666-67.168 21-68.168c18 0 20.5 19.834 20.5 24.834s0 36.668-41.5 43.334m68.167-46.666c0-37.333-25.333-47.834-44.333-47.834s-33.334 7.334-42.5 20.5c-9.166 13.167-11.334 29.334-10.5 61.167s5.5 63.5 7.666 82.166c2.168 18.666 10.5 22.334 20.667 22.334s11.333-3.5 10.167-11c-1.168-11.166-6.5-55-6.5-55 57.499-7.333 65.333-52.167 65.333-72.333" fill="#10b0b0" transform="matrix(.577896 0 0 .577896 122.625039416 232.675863248)"/><path d="m0 38.167c-4.833 9-17.449 13.845-22.333 7.333-5-6.667 0-15.5 4.5-19.167 9-7.834 22.333-6.166 22.333-6.166s.334 9-4.5 18m-1.5-70.5c-6.5 0-18 .833-18 11.666s8.5 10 14.334 10c5.834 0 10.5 3.834 10.5 7.5v5.167c-38.5 0-56.334 18.333-56.334 35.5s11.5 32.362 28.334 32.362 26.666-17.362 26.666-17.362-.666 8 2.834 13 15.166 4.333 18 4.333 3.333-3.333 3.333-9.833v-61.5c0-27.333-23.167-30.833-29.667-30.833" fill="#10b0b0" transform="matrix(.577896 0 0 .577896 174.057783416 240.09142472)"/><path d="m0-11.5v49.5c0 6.833-1.334 8.5-5.666 8.5-4.334 0-21.5-.833-21.5-22.333v-66.667c0-5 5.666-15.5 16.333-15.5 4 0 7.333 2.666 7.333 7.833v7.834s8.166-10.834 24.834-10.834c16.666 0 23.5 13.167 23.5 13.167s7.5-13.333 25.5-13.333 28.333 15.5 28.333 28.833v60.5c0 6.833-5.333 7.5-9.5 7.5s-17.667-4.169-17.667-20.668-.166-33.331-.166-39.665-3.834-10.667-10-10.667c-6.167 0-12.334 5.667-12.334 12v46.167c0 8.5-8.166 8.666-10.333 8.666s-16.167-2.336-16.167-16.501-.166-27.333-.166-34.999-1.834-15.166-9.167-15.166-13.167 4.5-13.167 15.833" fill="#10b0b0" transform="matrix(.577896 0 0 .577896 212.198919416 254.924281352)"/><path d="m0 14.167v-37.834c0-6.833 3.5-14 14-14s14.334 9.5 14.334 17.667-3.668 33.334-28.334 34.167m12-76.167c-32 0-35.333 26.334-35.333 38v86.834c0 12.334 10.666 13.333 14.833 13.333s8.167-2.167 8.167-5.5v-34.333c37.5-2.999 51.667-34.834 51.667-56.667 0-25.833-16.167-41.667-39.334-41.667" fill="#10b0b0" transform="matrix(.577896 0 0 .577896 288.288752048 255.98356472)"/><path d="m0-54.663c10.797-2.289 11.584 13.321 11.584 13.321l-23.169 7.881c0-4.412.788-18.913 11.585-21.202m32.407 42.807c-1.926-2.889-6.9-5.617-13.159.321-6.259 5.937-12.356 11.233-21.022 11.233s-9.789-7.221-9.789-12.196c0 0 32.897-11.234 39.477-14.283s7.061-7.223 6.9-13.481c-.16-6.257-5.134-36.567-34.984-36.567-13.801 0-29.527 13.778-34.503 37.049-2.407 12.839-8.346 61.946 30.33 61.946 24.715 0 35.788-17.012 38.356-22.949 2.567-5.938.32-8.185-1.606-11.073" fill="#10b0b0" transform="matrix(.577896 0 0 .577896 342.821908088 265.805485136)"/><path d="m0-75.336c0-4.098 5.517-13.239 16.076-13.239 5.831 0 8.037 3.152 8.037 5.516v8.511s10.404-12.451 21.593-12.451c7.407 0 8.983 8.511 8.983 11.82 0 3.31.789 6.934-4.097 8.984-4.886 2.049-24.114 9.614-24.114 18.913s.158 49.015.158 53.271c0 7.093-6.62 7.25-9.457 7.25s-17.179-.315-17.179-17.337z" fill="#10b0b0" transform="matrix(.577896 0 0 .577896 368.552149592 273.245896136)"/><path d="m0-51.694c0-8.511 1.418-29.473 32.151-29.473 21.278 0 31.364 17.652 31.364 27.739 0 3.467-2.363 6.777-7.249 8.51-4.887 1.734-11.034.788-13.082-3.782-2.049-4.57-5.358-10.718-11.426-10.718-6.069 0-7.802 5.99-7.802 7.566 0 5.988 7.251 10.717 20.962 23.168s15.76 18.913 15.76 30.576-10.403 27.581-32.31 27.581c-18.912 0-31.837-9.772-38.929-20.017-2.679-4.57-1.103-10.717 1.734-14.972s7.407-6.305 11.348-2.365c3.94 3.941 13.082 14.658 24.429 14.658 5.989 0 8.826-4.097 8.826-8.037 0-7.251-14.341-13.552-24.271-24.586-12.609-13.871-11.505-25.848-11.505-25.848" fill="#10b0b0" transform="matrix(.577896 0 0 .577896 402.980881688 267.597540632)"/><path d="m0-.887h1.063c1.244 0 2.25-.414 2.25-1.421 0-.886-.65-1.478-2.071-1.478-.593 0-1.007.062-1.242.121zm-.059 5.442h-2.249v-9.7c.886-.12 2.129-.298 3.728-.298 1.831 0 2.658.298 3.313.771.589.413 1.002 1.122 1.002 2.07 0 1.186-.885 1.95-2.007 2.308v.116c.944.298 1.42 1.063 1.714 2.369.293 1.479.53 2.009.708 2.364h-2.365c-.294-.355-.472-1.183-.77-2.364-.174-1.007-.766-1.478-2.009-1.478h-1.065zm1.479-12.778c-4.199 0-7.455 3.493-7.455 7.75 0 4.321 3.256 7.75 7.571 7.75 4.199.058 7.398-3.429 7.398-7.691 0-4.316-3.199-7.809-7.455-7.809zm.116-1.95c5.501 0 9.879 4.258 9.879 9.7s-4.378 9.759-9.936 9.759c-5.559 0-9.996-4.317-9.996-9.759s4.437-9.7 9.996-9.7z" fill="#10b0b0" transform="matrix(.577896 0 0 .577896 447.72852476 279.422448584)"/><path d="m0 9.084c4.583 0 8.167-.167 8.167-3.667v-8c0-3.833-.334-4.667-6.667-4.667s-20.584 1.916-28.667 15.5v8.084s13.584-7.25 27.167-7.25" fill="#bae3e3" transform="matrix(.577896 0 0 .577896 376.996365944 164.483557352)"/><path d="m0-11.001c2.334-2.666 3.334-4.416 1.167-6.582-2.167-2.168-5.583-4.917-7-6.25-1.417-1.334-4.166-1.667-7.833 2-3.667 3.666-14.25 13.666-17.417 22.582-.417 1.334-1.5 6.417 3.25 10.75 1.417 1 3.25 3 5.75 0s22.083-22.5 22.083-22.5" fill="#bae3e3" transform="matrix(.577896 0 0 .577896 372.276689312 130.773149984)"/><path d="m0 36.917s-.501-26.501-.667-28.084-6.166-8.833-15.833-8.833c-.917 0-1.167.333-1.167 2.583s.666 19.416 1 23 4.5 11.334 16.667 11.334" fill="#bae3e3" transform="matrix(.577896 0 0 .577896 331.823969312 100.000187984)"/><path d="m0-21.312c1.375 0 5.187 1.312 8.563 4.125 3.375 2.812 11.187 9.625 14.249 15.75.313 1.312-.125 1.437-2.375 1.437s-12.374-.75-15.25-3.75c-2.874-2.999-9.687-11.25-10.749-12.812-1.063-1.562-.438-4.75 5.562-4.75" fill="#bae3e3" transform="matrix(.577896 0 0 .577896 291.864772496 138.080644904)"/><path d="m0-8.796c-4.333 20-17.333 69.334-35.333 69.334-13 0-65.834-42-65.834-68.5 0-9.334 6.628-14.834 12.694-14.834 9.306 0 27.806 10 27.806 10s1.333 46.334 20.5 46.334c7.5 0 18.667-10.834 18.667-19.5 0-6.5-4.339-21.272-23.167-34.5 0 0 6.001-34.5 32.334-34.5 11 0 18.5 17.666 12.333 46.166m-46.167 5.213s19.667 11.62 12.667 21.287c-2.667 3.5-13.001-6.408-12.667-21.287m40-78.879c-39.667-1.667-52.333 52-52.333 52s-19.333-14.334-41.334-14.334c-17.166 0-29.666 14.5-29.666 29.334 0 21 16.166 42.833 36.166 58 25.667 20.167 52.167 32.795 66.001 32.795s27.833-21.962 35.666-35.629c18.833-33.167 19.667-65.5 19.667-78.166 0-12.667-10-42.168-34.167-44" fill="#ffe100" transform="matrix(.577896 0 0 .577896 338.37326468 178.524118568)"/></g><image height="22" transform="matrix(.99999701736 0 0 .99999701736 302.99905427528 158.99954969144)" width="10" xlink:href="data:image/png;base64,iVBORw0KGgoAAAANSUhEUgAAAAoAAAAWCAYAAAD5Jg1dAAAACXBIWXMAAA7EAAAOxAGVKw4bAAABMklEQVQokb3STU4CQRCG4beKZqZp+YkQTIw/G1foETyAO+/qXdyYmBiQRBFHMBEcM86UC4IGmNn6rbqTp1JdlRazHIrUGPeBpVARx+SSVK+RryVxjAGlWGwIRYElM4gjaDZBZRcrgCrS7yFm8DaDLMMA24HrdNpIuwnJHD4WYPaHxYblj58mmCp02uBqiJYz6PcQH8NrAml+Zq4KAuwFxHsslYvq1tupbP0PcJRc2WK5udxSmNPl9g7GT1hh1QUamgcED7M53D/A8rMcu0boE8LqIsDzC7RbWHd/83O4yB8R/GZ1lsE0gU4L8/EKO9c4x2/BdT5TKPTUgk/FaTygXhekYg5xJ3B4g9Nai8gfQ/5YMe47aA8HiPMDI92FBmDTlQeQaIAqqIIIv+eaQo0JfI/4ARGwYwrD2l31AAAAAElFTkSuQmCC"/></svg>

<?xml version="1.0" encoding="UTF-8" standalone="no"?>
<!DOCTYPE svg PUBLIC "-//W3C//DTD SVG 1.1//EN" "http://www.w3.org/Graphics/SVG/1.1/DTD/svg11.dtd">
<svg width="100%" height="100%" viewBox="0 0 560 400" version="1.1" xmlns="http://www.w3.org/2000/svg" xmlns:xlink="http://www.w3.org/1999/xlink" xml:space="preserve" xmlns:serif="http://www.serif.com/" style="fill-rule:evenodd;clip-rule:evenodd;stroke-linejoin:round;stroke-miterlimit:1.41421;">
    <g transform="matrix(0.577896,0,0,0.577896,34.2815,-45.7186)">
        <g transform="matrix(1,0,0,1,152.871,481.738)">
            <path d="M0,2.833C0,2.833 -10.666,-64.335 21,-65.335C39,-65.335 41.5,-45.501 41.5,-40.501C41.5,-35.501 41.5,-3.833 0,2.833M68.167,-43.833C68.167,-81.166 42.834,-91.667 23.834,-91.667C4.834,-91.667 -9.5,-84.333 -18.666,-71.167C-27.832,-58 -30,-41.833 -29.166,-10C-28.332,21.833 -23.666,53.5 -21.5,72.166C-19.332,90.832 -11,94.5 -0.833,94.5C9.334,94.5 10.5,91 9.334,83.5C8.166,72.334 2.834,28.5 2.834,28.5C60.333,21.167 68.167,-23.667 68.167,-43.833" style="fill:rgb(16,176,176);fill-rule:nonzero;"/>
        </g>
        <g transform="matrix(1,0,0,1,241.871,494.57)">
            <path d="M0,38.167C-4.833,47.167 -17.449,52.012 -22.333,45.5C-27.333,38.833 -22.333,30 -17.833,26.333C-8.833,18.499 4.5,20.167 4.5,20.167C4.5,20.167 4.834,29.167 0,38.167M-1.5,-32.333C-8,-32.333 -19.5,-31.5 -19.5,-20.667C-19.5,-9.834 -11,-10.667 -5.166,-10.667C0.668,-10.667 5.334,-6.833 5.334,-3.167L5.334,2C-33.166,2 -51,20.333 -51,37.5C-51,54.667 -39.5,69.862 -22.666,69.862C-5.832,69.862 4,52.5 4,52.5C4,52.5 3.334,60.5 6.834,65.5C10.334,70.5 22,69.833 24.834,69.833C27.668,69.833 28.167,66.5 28.167,60L28.167,-1.5C28.167,-28.833 5,-32.333 -1.5,-32.333" style="fill:rgb(16,176,176);fill-rule:nonzero;"/>
        </g>
        <g transform="matrix(1,0,0,1,307.871,520.237)">
            <path d="M0,-11.5L0,38C0,44.833 -1.334,46.5 -5.666,46.5C-10,46.5 -27.166,45.667 -27.166,24.167L-27.166,-42.5C-27.166,-47.5 -21.5,-58 -10.833,-58C-6.833,-58 -3.5,-55.334 -3.5,-50.167L-3.5,-42.333C-3.5,-42.333 4.666,-53.167 21.334,-53.167C38,-53.167 44.834,-40 44.834,-40C44.834,-40 52.334,-53.333 70.334,-53.333C88.334,-53.333 98.667,-37.833 98.667,-24.5L98.667,36C98.667,42.833 93.334,43.5 89.167,43.5C85,43.5 71.5,39.331 71.5,22.832C71.5,6.333 71.334,-10.499 71.334,-16.833C71.334,-23.167 67.5,-27.5 61.334,-27.5C55.167,-27.5 49,-21.833 49,-15.5L49,30.667C49,39.167 40.834,39.333 38.667,39.333C36.5,39.333 22.5,36.997 22.5,22.832C22.5,8.667 22.334,-4.501 22.334,-12.167C22.334,-19.833 20.5,-27.333 13.167,-27.333C5.834,-27.333 0,-22.833 0,-11.5" style="fill:rgb(16,176,176);fill-rule:nonzero;"/>
        </g>
        <g transform="matrix(1,0,0,1,439.538,522.07)">
            <path d="M0,14.167L0,-23.667C0,-30.5 3.5,-37.667 14,-37.667C24.5,-37.667 28.334,-28.167 28.334,-20C28.334,-11.833 24.666,13.334 0,14.167M12,-62C-20,-62 -23.333,-35.666 -23.333,-24L-23.333,62.834C-23.333,75.168 -12.667,76.167 -8.5,76.167C-4.333,76.167 -0.333,74 -0.333,70.667L-0.333,36.334C37.167,33.335 51.334,1.5 51.334,-20.333C51.334,-46.166 35.167,-62 12,-62" style="fill:rgb(16,176,176);fill-rule:nonzero;"/>
        </g>
        <g transform="matrix(1,0,0,1,533.903,539.066)">
            <path d="M0,-54.663C10.797,-56.952 11.584,-41.342 11.584,-41.342L-11.585,-33.461C-11.585,-37.873 -10.797,-52.374 0,-54.663M32.407,-11.856C30.481,-14.745 25.507,-17.473 19.248,-11.535C12.989,-5.598 6.892,-0.302 -1.774,-0.302C-10.44,-0.302 -11.563,-7.523 -11.563,-12.498C-11.563,-12.498 21.334,-23.732 27.914,-26.781C34.494,-29.83 34.975,-34.004 34.814,-40.262C34.654,-46.519 29.68,-76.829 -0.17,-76.829C-13.971,-76.829 -29.697,-63.051 -34.673,-39.78C-37.08,-26.941 -43.019,22.166 -4.343,22.166C20.372,22.166 31.445,5.154 34.013,-0.783C36.58,-6.721 34.333,-8.968 32.407,-11.856" style="fill:rgb(16,176,176);fill-rule:nonzero;"/>
        </g>
        <g transform="matrix(1,0,0,1,578.427,551.941)">
            <path d="M0,-75.336C0,-79.434 5.517,-88.575 16.076,-88.575C21.907,-88.575 24.113,-85.423 24.113,-83.059L24.113,-74.548C24.113,-74.548 34.517,-86.999 45.706,-86.999C53.113,-86.999 54.689,-78.488 54.689,-75.179C54.689,-71.869 55.478,-68.245 50.592,-66.195C45.706,-64.146 26.478,-56.581 26.478,-47.282C26.478,-37.983 26.636,1.733 26.636,5.989C26.636,13.082 20.016,13.239 17.179,13.239C14.342,13.239 0,12.924 0,-4.098L0,-75.336Z" style="fill:rgb(16,176,176);fill-rule:nonzero;"/>
        </g>
        <g transform="matrix(1,0,0,1,638.003,542.167)">
            <path d="M0,-51.694C0,-60.205 1.418,-81.167 32.151,-81.167C53.429,-81.167 63.515,-63.515 63.515,-53.428C63.515,-49.961 61.152,-46.651 56.266,-44.918C51.379,-43.184 45.232,-44.13 43.184,-48.7C41.135,-53.27 37.826,-59.418 31.758,-59.418C25.689,-59.418 23.956,-53.428 23.956,-51.852C23.956,-45.864 31.207,-41.135 44.918,-28.684C58.629,-16.233 60.678,-9.771 60.678,1.892C60.678,13.555 50.275,29.473 28.368,29.473C9.456,29.473 -3.469,19.701 -10.561,9.456C-13.24,4.886 -11.664,-1.261 -8.827,-5.516C-5.99,-9.771 -1.42,-11.821 2.521,-7.881C6.461,-3.94 15.603,6.777 26.95,6.777C32.939,6.777 35.776,2.68 35.776,-1.26C35.776,-8.511 21.435,-14.812 11.505,-25.846C-1.104,-39.717 0,-51.694 0,-51.694" style="fill:rgb(16,176,176);fill-rule:nonzero;"/>
        </g>
        <g transform="matrix(1,0,0,1,715.435,562.629)">
            <path d="M0,-0.887L1.063,-0.887C2.307,-0.887 3.313,-1.301 3.313,-2.308C3.313,-3.194 2.663,-3.786 1.242,-3.786C0.649,-3.786 0.235,-3.724 0,-3.665L0,-0.887ZM-0.059,4.555L-2.308,4.555L-2.308,-5.145C-1.422,-5.265 -0.179,-5.443 1.42,-5.443C3.251,-5.443 4.078,-5.145 4.733,-4.672C5.322,-4.259 5.735,-3.55 5.735,-2.602C5.735,-1.416 4.85,-0.652 3.728,-0.294L3.728,-0.178C4.672,0.12 5.148,0.885 5.442,2.191C5.735,3.67 5.972,4.2 6.15,4.555L3.785,4.555C3.491,4.2 3.313,3.372 3.015,2.191C2.841,1.184 2.249,0.713 1.006,0.713L-0.059,0.713L-0.059,4.555ZM1.42,-8.223C-2.779,-8.223 -6.035,-4.73 -6.035,-0.473C-6.035,3.848 -2.779,7.277 1.536,7.277C5.735,7.335 8.934,3.848 8.934,-0.414C8.934,-4.73 5.735,-8.223 1.479,-8.223L1.42,-8.223ZM1.536,-10.173C7.037,-10.173 11.415,-5.915 11.415,-0.473C11.415,4.969 7.037,9.286 1.479,9.286C-4.08,9.286 -8.517,4.969 -8.517,-0.473C-8.517,-5.915 -4.08,-10.173 1.479,-10.173L1.536,-10.173Z" style="fill:rgb(16,176,176);fill-rule:nonzero;"/>
        </g>
        <g transform="matrix(1,0,0,1,593.039,363.737)">
            <path d="M0,9.084C4.583,9.084 8.167,8.917 8.167,5.417L8.167,-2.583C8.167,-6.416 7.833,-7.25 1.5,-7.25C-4.833,-7.25 -19.084,-5.334 -27.167,8.25L-27.167,16.334C-27.167,16.334 -13.583,9.084 0,9.084" style="fill:rgb(186,227,227);fill-rule:nonzero;"/>
        </g>
        <g transform="matrix(1,0,0,1,584.872,305.404)">
            <path d="M0,-11.001C2.334,-13.667 3.334,-15.417 1.167,-17.583C-1,-19.751 -4.416,-22.5 -5.833,-23.833C-7.25,-25.167 -9.999,-25.5 -13.666,-21.833C-17.333,-18.167 -27.916,-8.167 -31.083,0.749C-31.5,2.083 -32.583,7.166 -27.833,11.499C-26.416,12.499 -24.583,14.499 -22.083,11.499C-19.583,8.499 0,-11.001 0,-11.001" style="fill:rgb(186,227,227);fill-rule:nonzero;"/>
        </g>
        <g transform="matrix(1,0,0,1,514.872,252.154)">
            <path d="M0,36.917C0,36.917 -0.501,10.416 -0.667,8.833C-0.833,7.25 -6.833,0 -16.5,0C-17.417,0 -17.667,0.333 -17.667,2.583C-17.667,4.833 -17.001,21.999 -16.667,25.583C-16.333,29.167 -12.167,36.917 0,36.917" style="fill:rgb(186,227,227);fill-rule:nonzero;"/>
        </g>
        <g transform="matrix(1,0,0,1,445.726,318.049)">
            <path d="M0,-21.312C1.375,-21.312 5.187,-20 8.563,-17.187C11.938,-14.375 19.75,-7.562 22.812,-1.437C23.125,-0.125 22.687,0 20.437,0C18.187,0 8.063,-0.75 5.187,-3.75C2.313,-6.749 -4.5,-15 -5.562,-16.562C-6.625,-18.124 -6,-21.312 0,-21.312" style="fill:rgb(186,227,227);fill-rule:nonzero;"/>
        </g>
        <g transform="matrix(1,0,0,1,526.205,388.033)">
            <path d="M0,-8.796C-4.333,11.204 -17.333,60.538 -35.333,60.538C-48.333,60.538 -101.167,18.538 -101.167,-7.962C-101.167,-17.296 -94.539,-22.796 -88.473,-22.796C-79.167,-22.796 -60.667,-12.796 -60.667,-12.796C-60.667,-12.796 -59.334,33.538 -40.167,33.538C-32.667,33.538 -21.5,22.704 -21.5,14.038C-21.5,7.538 -25.839,-7.234 -44.667,-20.462C-44.667,-20.462 -38.666,-54.962 -12.333,-54.962C-1.333,-54.962 6.167,-37.296 0,-8.796M-46.167,-3.583C-46.167,-3.583 -26.5,8.037 -33.5,17.704C-36.167,21.204 -46.501,11.296 -46.167,-3.583M-6.167,-82.462C-45.834,-84.129 -58.5,-30.462 -58.5,-30.462C-58.5,-30.462 -77.833,-44.796 -99.834,-44.796C-117,-44.796 -129.5,-30.296 -129.5,-15.462C-129.5,5.538 -113.334,27.371 -93.334,42.538C-67.667,62.705 -41.167,75.333 -27.333,75.333C-13.499,75.333 0.5,53.371 8.333,39.704C27.166,6.537 28,-25.796 28,-38.462C28,-51.129 18,-80.63 -6.167,-82.462" style="fill:rgb(255,225,0);fill-rule:nonzero;"/>
        </g>
        <g transform="matrix(1.73041,-0,-0,1.73041,-59.3213,79.1122)">
            <use xlink:href="#_Image1" x="303" y="159" width="10px" height="22px"/>
        </g>
    </g>
    <defs>
        <image id="_Image1" width="10px" height="22px" xlink:href="data:image/png;base64,iVBORw0KGgoAAAANSUhEUgAAAAoAAAAWCAYAAAD5Jg1dAAAACXBIWXMAAA7EAAAOxAGVKw4bAAABMklEQVQokb3STU4CQRCG4beKZqZp+YkQTIw/G1foETyAO+/qXdyYmBiQRBFHMBEcM86UC4IGmNn6rbqTp1JdlRazHIrUGPeBpVARx+SSVK+RryVxjAGlWGwIRYElM4gjaDZBZRcrgCrS7yFm8DaDLMMA24HrdNpIuwnJHD4WYPaHxYblj58mmCp02uBqiJYz6PcQH8NrAml+Zq4KAuwFxHsslYvq1tupbP0PcJRc2WK5udxSmNPl9g7GT1hh1QUamgcED7M53D/A8rMcu0boE8LqIsDzC7RbWHd/83O4yB8R/GZ1lsE0gU4L8/EKO9c4x2/BdT5TKPTUgk/FaTygXhekYg5xJ3B4g9Nai8gfQ/5YMe47aA8HiPMDI92FBmDTlQeQaIAqqIIIv+eaQo0JfI/4ARGwYwrD2l31AAAAAElFTkSuQmCC"/>
    </defs>
</svg>
